public/img/8.svg

<svg width="216" height="275" viewBox="0 0 216 275" fill="none" xmlns="http://www.w3.org/2000/svg">
<g opacity="0.7">
<g clip-path="url(#clip0)">
<mask id="mask0" mask-type="alpha" maskUnits="userSpaceOnUse" x="-85" y="-71" width="536" height="535">
<path fill-rule="evenodd" clip-rule="evenodd" d="M8.00334 171.282C5.17816 179.59 2.86219 188.048 1.02543 196.488L109.907 88.7548C107.885 88.7233 105.862 88.6735 103.842 88.6238C100.544 88.5427 97.2539 88.4617 93.9871 88.4609L8.00334 171.282ZM17.0324 149.034L76.7106 89.6954C68.2302 91.173 60.1428 94.2953 52.7786 100.656C37.6667 113.707 25.8795 130.546 17.0324 149.034ZM121.655 88.5955L-2.1896 214.47C-2.99606 220.058 -3.71475 225.733 -4.30394 231.44L144.062 83.9344C136.861 86.9673 129.321 88.1774 121.655 88.5955ZM180.807 47.4022L249.349 -20.7423C246.283 -20.6628 243.154 -20.2931 239.964 -19.6041C217.721 -14.7991 204.356 7.87222 190.605 31.1987C187.399 36.637 184.173 42.1108 180.807 47.4022ZM261.455 -19.5422L-5.35787 243.775C-5.7929 250.306 -6.02067 256.832 -5.97934 263.275L267.851 -17.665C265.756 -18.4232 263.624 -19.0531 261.455 -19.5422ZM275.592 -14.2109L-5.57636 275.162C-5.38378 278.206 -5.11967 281.219 -4.77711 284.194L286.875 -6.78C283.263 -9.62704 279.5 -12.1346 275.592 -14.2109ZM290.598 -3.68215L-3.12755 295.062C-2.28631 299.46 -1.23975 303.741 0.0372073 307.873L301.92 7.81439C298.347 3.67651 294.571 -0.200213 290.598 -3.68215ZM310.937 19.3455L2.93956 316.013C4.87645 320.758 7.17632 325.255 9.88383 329.446L315.896 26.6615C314.304 24.1956 312.651 21.7502 310.937 19.3455ZM319.015 31.6435L16.9625 338.645C17.1074 338.804 17.2531 338.961 17.3996 339.118C19.4943 341.364 21.7119 343.429 24.04 345.322L326.366 44.7482C325.995 43.9825 325.608 43.2231 325.203 42.4705C323.275 38.8895 321.211 35.2595 319.015 31.6435ZM329.453 52.3552L28.7712 348.837C33.1091 351.776 37.7632 354.207 42.6663 356.183L331.423 59.4214C330.877 57.0226 330.226 54.6655 329.453 52.3552ZM332.994 68.4828L51.1929 359.104C53.8535 359.866 56.5701 360.516 59.3335 361.061L333.956 87.1236C333.991 80.7573 333.744 74.518 332.994 68.4828ZM333.802 94.541L69.953 362.631C74.6934 363.114 79.5301 363.334 84.4215 363.325L332.636 116.522C332.731 114.891 332.828 113.262 332.925 111.634C333.268 105.896 333.61 100.181 333.802 94.541ZM331.88 136.23L96.5984 362.856C104.241 362.295 111.932 361.255 119.518 359.857L332.229 149.389C331.939 145.049 331.846 140.655 331.88 136.23ZM333.162 158.033L139.464 354.906C154.07 349.036 166.146 336.267 178.312 323.402C190.788 310.209 203.358 296.916 218.849 290.862L336.72 173.674C335.216 168.437 333.97 163.215 333.162 158.033ZM339.766 183.406L234.707 287.088C239.629 286.555 244.631 286.515 249.669 286.785L342.561 191.481C341.607 188.792 340.667 186.099 339.766 183.406ZM348.575 208.455L270.178 289.14C272.22 289.455 274.258 289.781 276.29 290.107C278.266 290.423 280.236 290.738 282.198 291.042L352.488 220.915C351.337 216.795 350.002 212.638 348.575 208.455ZM354.701 229.997L293.191 292.559C299.65 293.297 305.954 293.665 312.001 293.245L356.312 249.202C356.701 242.96 356.033 236.54 354.701 229.997Z" fill="white"/>
</mask>
<g mask="url(#mask0)">
<path d="M195.919 138.643C206.296 146.245 211.787 156.803 212.39 170.318C212.631 181.66 208.468 191.615 199.901 200.183C191.334 208.629 179.327 212.853 163.882 212.853C148.557 212.853 136.611 208.69 128.044 200.364C119.477 191.917 115.193 182.022 115.193 170.68C115.193 157.286 120.683 146.546 131.664 138.462C126.234 132.187 123.398 125.128 123.157 117.285C122.916 107.873 126.355 99.6071 133.474 92.4878C140.714 85.3684 150.85 81.8088 163.882 81.8088C176.793 81.8088 186.809 85.3081 193.928 92.3068C201.047 99.1848 204.607 107.33 204.607 116.742C204.607 124.826 201.711 132.127 195.919 138.643ZM155.013 125.973C157.185 128.024 160.141 129.05 163.882 129.05C167.623 129.05 170.519 127.964 172.57 125.792C174.621 123.62 175.647 121.025 175.647 118.009C175.647 115.233 174.561 112.82 172.389 110.769C170.338 108.597 167.502 107.511 163.882 107.511C160.021 107.511 157.064 108.597 155.013 110.769C152.962 112.941 151.936 115.475 151.936 118.371C151.936 121.387 152.962 123.921 155.013 125.973ZM163.882 185.522C168.95 185.522 172.932 183.953 175.828 180.816C178.724 177.558 180.172 173.696 180.172 169.232C180.172 164.767 178.724 160.906 175.828 157.648C172.932 154.39 168.95 152.761 163.882 152.761C158.693 152.761 154.651 154.45 151.755 157.829C148.98 161.207 147.592 165.189 147.592 169.775C147.592 174.119 148.98 177.859 151.755 180.997C154.651 184.013 158.693 185.522 163.882 185.522Z" fill="white"/>
</g>
</g>
</g>
<defs>
<clipPath id="clip0">
<rect width="215.608" height="274.079" fill="white"/>
</clipPath>
</defs>
</svg>

<svg width="216" height="275" fill="none" xmlns="http://www.w3.org/2000/svg"><g clip-path="url(#clip0)" opacity=".7"><mask id="a" maskUnits="userSpaceOnUse" x="-85" y="-71" width="536" height="535"><path fill-rule="evenodd" clip-rule="evenodd" d="M8.003 171.282c-2.825 8.308-5.14 16.766-6.978 25.206L109.907 88.755a680.037 680.037 0 01-6.065-.131c-3.298-.081-6.588-.162-9.855-.163L8.003 171.282zm9.03-22.248L76.71 89.695c-8.48 1.478-16.568 4.6-23.932 10.961-15.112 13.051-26.9 29.89-35.747 48.378zm104.622-60.438L-2.19 214.47a423.298 423.298 0 00-2.114 16.97L144.062 83.934c-7.201 3.033-14.741 4.243-22.407 4.662zm59.152-41.194l68.542-68.144a50.58 50.58 0 00-9.385 1.138c-22.243 4.805-35.608 27.476-49.359 50.803-3.206 5.438-6.432 10.912-9.798 16.203zm80.648-66.944L-5.358 243.775c-.435 6.531-.663 13.057-.621 19.5l273.83-280.94a53.129 53.129 0 00-6.396-1.877zm14.137 5.331L-5.576 275.162c.192 3.044.456 6.057.799 9.032L286.875-6.78c-3.612-2.847-7.375-5.355-11.283-7.43zm15.006 10.529L-3.128 295.062c.842 4.398 1.888 8.679 3.165 12.811L301.92 7.814c-3.573-4.137-7.349-8.014-11.322-11.496zm20.339 23.027L2.94 316.014c1.936 4.745 4.236 9.242 6.944 13.433L315.896 26.661a192.44 192.44 0 00-4.959-7.316zm8.078 12.299l-302.053 307a66.047 66.047 0 007.078 6.677L326.366 44.748a60.169 60.169 0 00-1.163-2.277 240.777 240.777 0 00-6.188-10.827zm10.438 20.711L28.771 348.837c4.338 2.939 8.992 5.37 13.895 7.346L331.423 59.421a74.035 74.035 0 00-1.97-7.066zm3.541 16.128L51.193 359.104a99.466 99.466 0 008.14 1.957L333.957 87.124c.035-6.367-.212-12.606-.962-18.641zm.808 26.058L69.953 362.631c4.74.483 9.577.703 14.468.694l248.215-246.803c.095-1.631.192-3.26.289-4.888.343-5.738.685-11.453.877-17.093zm-1.922 41.689L96.598 362.856c7.643-.561 15.334-1.601 22.92-2.999l212.711-210.468c-.29-4.34-.383-8.734-.349-13.159zm1.282 21.803L139.464 354.906c14.606-5.87 26.682-18.639 38.848-31.504 12.476-13.193 25.046-26.486 40.537-32.54L336.72 173.674c-1.504-5.237-2.75-10.459-3.558-15.641zm6.604 25.373L234.707 287.088c4.922-.533 9.924-.573 14.962-.303l92.892-95.304a473.6 473.6 0 01-2.795-8.075zm8.809 25.049l-78.397 80.685c2.042.315 4.08.641 6.112.967 1.976.316 3.946.631 5.908.935l70.29-70.127c-1.151-4.12-2.486-8.277-3.913-12.46zm6.126 21.542l-61.51 62.562c6.459.738 12.763 1.106 18.81.686l44.311-44.043c.389-6.242-.279-12.662-1.611-19.205z" fill="#fff"/></mask><g mask="url(#a)"><path d="M195.919 138.643c10.377 7.602 15.868 18.16 16.471 31.675.241 11.342-3.922 21.297-12.489 29.865-8.567 8.446-20.574 12.67-36.019 12.67-15.325 0-27.271-4.163-35.838-12.489-8.567-8.447-12.851-18.342-12.851-29.684 0-13.394 5.49-24.134 16.471-32.218-5.43-6.275-8.266-13.334-8.507-21.177-.241-9.412 3.198-17.678 10.317-24.797 7.24-7.12 17.376-10.68 30.408-10.68 12.911 0 22.927 3.5 30.046 10.499 7.119 6.878 10.679 15.023 10.679 24.435 0 8.084-2.896 15.385-8.688 21.901zm-40.906-12.67c2.172 2.051 5.128 3.077 8.869 3.077 3.741 0 6.637-1.086 8.688-3.258 2.051-2.172 3.077-4.767 3.077-7.783 0-2.776-1.086-5.189-3.258-7.24-2.051-2.172-4.887-3.258-8.507-3.258-3.861 0-6.818 1.086-8.869 3.258-2.051 2.172-3.077 4.706-3.077 7.602 0 3.016 1.026 5.55 3.077 7.602zm8.869 59.549c5.068 0 9.05-1.569 11.946-4.706 2.896-3.258 4.344-7.12 4.344-11.584 0-4.465-1.448-8.326-4.344-11.584-2.896-3.258-6.878-4.887-11.946-4.887-5.189 0-9.231 1.689-12.127 5.068-2.775 3.378-4.163 7.36-4.163 11.946 0 4.344 1.388 8.084 4.163 11.222 2.896 3.016 6.938 4.525 12.127 4.525z" fill="#fff"/></g></g><defs><clipPath id="clip0"><path fill="#fff" d="M0 0h215.608v274.079H0z"/></clipPath></defs></svg>
